X:5
T:Kate and Julie's First Reel
R:reel
C:Jerry Holland
O:20th Century Cape Breton
S:Tune of the Month. June,1998.
A:<http://www.capebretonet.com/Music/Holland>
N:Contacts ...
N:Bookings,Mechanicals etc.
N:..... Jerry Holland <jerry@cranfordpub.com>
N:Tune books, related recordings
N:..... Cranford Publications <http://www.cranfordpub.com>
B:Previously Unpublished.
D:Currently unrecorded.
H:Copyrights - Publisher:Fiddlesticks Music (SOCAN).
Z:This abc transcription is for personal use only
Z:provided this notice remains attached.
Z:Used by permission of the composer and publisher.
Z:Paul Stewart Cranford 
Q:333
L:1/8
M:C|
K:F
c|f2 af dcBA|d2cB AFFA|GCEC EFGA|B2 cB AGGc|!
f2 af dcBA|d2cB AFFA|GCEC EFGA|B2 cB AFF:|!
=3DB|c2Ac fcfg|afcA dBcA|{A}d2BG DGGA|B2 cB AGG=3DB|!
c2Ac fcfg|afcA dBcA|{A}d2BG DGGA|B2 cB AFF:|!
